X: 2
T: Connie Flemming's
M: 2/4
L: 1/8
R: polka
K: Gmaj
|: G2 G2 | Bd eg | B2 BA | GE ED |
G2 GA | Bd ed | eg af | g2 g2 :|
|: g2 ga | gf ed | B2 BA | GE ED |
G2 GA | Bd ed | eg af | g2 g2 :|
